caffesta_client/src/images/footer_icons/home.svg

<svg width="24" height="24" xmlns="http://www.w3.org/2000/svg" fill="none">

 <g>
  <title>Layer 1</title>
  <path id="svg_1" fill="#7f7f00" d="m23.9925,15.9439c-1.6983,4.7604 -5.6312,8.0561 -11.337,8.0561c-8.60336,0 -12.6555,-6.5475 -12.6555,-12.1648c0,-5.24381 3.88827,-11.8352 12.4544,-11.8352c5.7877,0 10.0111,3.33964 11.5456,8.21727l-6.1974,0c-1.0726,-2.07263 -3.0168,-3.09063 -5.4227,-3.09063c-4.38735,0 -6.8678,3.17119 -6.8678,6.78916c0,3.8669 2.64433,6.9576 6.8678,6.9576c0.9534,0 3.8883,-0.1612 5.4227,-2.9295l6.1899,0z"/>
 </g>
</svg>

<svg width="24" height="24" viewBox="0 0 24 24" fill="none" xmlns="http://www.w3.org/2000/svg">
<path d="M23.9925 15.9439C22.2942 20.7043 18.3613 24 12.6555 24C4.05214 24 0 17.4525 0 11.8352C0 6.59139 3.88827 0 12.4544 0C18.2421 0 22.4655 3.33964 24 8.21727H17.8026C16.73 6.14464 14.7858 5.12664 12.3799 5.12664C7.99255 5.12664 5.5121 8.29783 5.5121 11.9158C5.5121 15.7827 8.15643 18.8734 12.3799 18.8734C13.3333 18.8734 16.2682 18.7122 17.8026 15.9439H23.9925Z" fill="white"/>
</svg>
